src/assets/img/icons/duotone-icons/Cooking/Fork-spoon-knife.svg

<?xml version="1.0" encoding="UTF-8"?>
<svg width="24px" height="24px" viewBox="0 0 24 24" version="1.1" xmlns="http://www.w3.org/2000/svg" xmlns:xlink="http://www.w3.org/1999/xlink">
    <!-- Generator: Sketch 52.2 (67145) - http://www.bohemiancoding.com/sketch -->
    <title>Stockholm-icons / Cooking / Fork-spoon-knife</title>
    <desc>Created with Sketch.</desc>
    <g id="Stockholm-icons-/-Cooking-/-Fork-spoon-knife" stroke="none" stroke-width="1" fill="none" fill-rule="evenodd">
        <rect id="bound" x="0" y="0" width="24" height="24"></rect>
        <path d="M11,3 L11.4502481,7.5024814 C11.4784917,7.78491722 11.7161555,8 12,8 C12.2838445,8 12.5215083,7.78491722 12.5497519,7.5024814 L13,3 L14,3 L14.4502481,7.5024814 C14.4784917,7.78491722 14.7161555,8 15,8 C15.2838445,8 15.5215083,7.78491722 15.5497519,7.5024814 L16,3 L17,3 L17,7.5 C17,9.43299662 15.4329966,11 13.5,11 C11.5670034,11 10,9.43299662 10,7.5 L10,3 L11,3 Z" id="Combined-Shape" fill="#335EEA"></path>
        <path d="M13.5,13 L13.5,13 C14.0610373,13 14.5243493,13.4382868 14.55547,13.9984604 L14.916795,20.5023095 C14.9602658,21.2847837 14.3611851,21.9543445 13.5787108,21.9978153 C13.5524991,21.9992715 13.5262521,22 13.5,22 L13.5,22 C12.7163192,22 12.0810203,21.3647011 12.0810203,20.5810203 C12.0810203,20.5547682 12.0817488,20.5285212 12.083205,20.5023095 L12.44453,13.9984604 C12.4756507,13.4382868 12.9389627,13 13.5,13 Z" id="Rectangle" fill="#335EEA" opacity="0.3"></path>
        <path d="M21.5,15 L21.5,15 C22.0634495,15 22.5311029,15.4354411 22.571247,15.9974587 L22.8931294,20.503812 C22.9480869,21.2732161 22.3689134,21.9414932 21.5995092,21.9964506 C21.5663922,21.9988161 21.5332014,22 21.5,22 L21.5,22 C20.7286356,22 20.1033212,21.3746856 20.1033212,20.6033212 C20.1033212,20.5701198 20.1045051,20.536929 20.1068706,20.503812 L20.428753,15.9974587 C20.4688971,15.4354411 20.9365505,15 21.5,15 Z" id="Rectangle-Copy" fill="#335EEA" opacity="0.3"></path>
        <path d="M24,3 L24,13 L20,13 L20,7 C20,4.790861 21.790861,3 24,3 Z" id="Path-65" fill="#335EEA" transform="translate(22.000000, 8.000000) scale(-1, 1) translate(-22.000000, -8.000000) "></path>
        <path d="M4.5,14 L4.5,14 C5.06209761,14 5.5273156,14.4370496 5.56237829,14.9980526 L5.90643257,20.5029211 C5.95497952,21.2796724 5.3646533,21.9487088 4.58790204,21.9972557 C4.55863704,21.9990848 4.52932209,22 4.5,22 L4.5,22 C3.72173313,22 3.09082317,21.36909 3.09082317,20.5908232 C3.09082317,20.5615011 3.09173837,20.5321861 3.09356743,20.5029211 L3.43762171,14.9980526 C3.4726844,14.4370496 3.93790239,14 4.5,14 Z" id="Rectangle-Copy" fill="#335EEA" opacity="0.3"></path>
        <path d="M4.5,12 C2.56700338,12 1,9.43299662 1,7.5 C1,5.56700338 2.56700338,3 4.5,3 C6.43299662,3 8,5.56700338 8,7.5 C8,9.43299662 6.43299662,12 4.5,12 Z M4.5095372,4.60103244 L4.56069005,9.94758244 C5.61891495,9.8578583 6.45855912,8.97981222 6.47749614,7.8949109 C6.49728809,6.76103086 5.63275447,4.70470991 4.5095372,4.60103244 Z" id="Combined-Shape" fill="#335EEA"></path>
    </g>
</svg>

<svg width="24" height="24" viewBox="0 0 24 24" xmlns="http://www.w3.org/2000/svg"><g fill="none" fill-rule="evenodd"><path d="M0 0h24v24H0z"/><path d="M11 3l.45 4.502a.552.552 0 001.1 0L13 3h1l.45 4.502a.552.552 0 001.1 0L16 3h1v4.5a3.5 3.5 0 01-7 0V3h1z" fill="#335EEA"/><path d="M13.5 13c.561 0 1.024.438 1.055.998l.362 6.504A1.419 1.419 0 0113.5 22a1.419 1.419 0 01-1.417-1.498l.362-6.504c.03-.56.494-.998 1.055-.998zM21.5 15c.563 0 1.031.435 1.071.997l.322 4.507A1.397 1.397 0 0121.5 22a1.397 1.397 0 01-1.393-1.496l.322-4.507c.04-.562.508-.997 1.071-.997z" fill="#335EEA" opacity=".3"/><path d="M20 3v10h4V7a4 4 0 00-4-4z" fill="#335EEA"/><path d="M4.5 14c.562 0 1.027.437 1.062.998l.344 5.505A1.41 1.41 0 014.5 22a1.41 1.41 0 01-1.406-1.497l.344-5.505c.035-.561.5-.998 1.062-.998z" fill="#335EEA" opacity=".3"/><path d="M4.5 12C2.567 12 1 9.433 1 7.5 1 5.567 2.567 3 4.5 3S8 5.567 8 7.5C8 9.433 6.433 12 4.5 12zm.01-7.399l.05 5.347a2.097 2.097 0 001.917-2.053c.02-1.134-.844-3.19-1.967-3.294z" fill="#335EEA"/></g></svg>
